packages/tokens/icons/inclusivity/size24Px.svg

<svg viewBox="0 0 24 24" fill="none" xmlns="http://www.w3.org/2000/svg" width="1em" height="1em"><path d="M21.5 13.4142V20C21.5 20.2761 21.2761 20.5 21 20.5H14.4142C13.9688 20.5 13.7457 19.9614 14.0607 19.6464L20.6464 13.0607C20.9614 12.7457 21.5 12.9688 21.5 13.4142Z" stroke="currentColor"/><path d="M21.5 7.5C21.5 9.70914 19.7091 11.5 17.5 11.5C15.2909 11.5 13.5 9.70914 13.5 7.5C13.5 5.29086 15.2909 3.5 17.5 3.5C19.7091 3.5 21.5 5.29086 21.5 7.5Z" stroke="currentColor"/><rect x="3.5" y="3.5" width="8" height="8" rx="1.5" stroke="currentColor"/><path d="M4 13.5002L11 20.5M4 20.4998L11 13.5" stroke="currentColor" stroke-linecap="round"/></svg>

<svg xmlns="http://www.w3.org/2000/svg" fill="none" viewBox="0 0 24 24" width="1em" height="1em"><path stroke="currentColor" d="M21.5 13.414V20a.5.5 0 0 1-.5.5h-6.586a.5.5 0 0 1-.353-.854l6.585-6.585a.5.5 0 0 1 .854.353Zm0-5.914a4 4 0 1 1-8 0 4 4 0 0 1 8 0Z"/><rect width="8" height="8" x="3.5" y="3.5" stroke="currentColor" rx="1.5"/><path stroke="currentColor" stroke-linecap="round" d="m4 13.5 7 7m-7 0 7-7"/></svg>
